X: 35376
T: Roslyn Castle
R: reel
M: 4/4
K: Fdorian
ED C2|GA G2|FG AG|FE D2|ED C2|cd e2|dc =Bc|d=B G2|FG|
AG FE|D2 EF|GE DC|=B2 cd|ed/c/ dc/=B/|cGA G/F/|E2D2|C C3||
|:G|c2 cd|e2 dc|gf ef|d2 c=B|cG cd|fe dc|gf ef|d2 FG|
AG FE|D2 EF|GE DC|=B2 cd|ed/c/ dc/=B/|cGA G/F/|E2D2|C4:|

